src/assets/duotone/Facebook.svg

<svg width="24" height="24" viewBox="0 0 24 24"  xmlns="http://www.w3.org/2000/svg">
<path opacity="0.4" d="M16.1898 2H7.81976C4.17976 2 2.00977 4.17 2.00977 7.81V16.18C2.00977 19.82 4.17976 21.99 7.81976 21.99H16.1898C19.8298 21.99 21.9998 19.82 21.9998 16.18V7.81C21.9998 4.17 19.8298 2 16.1898 2Z" />
<path d="M13.9195 9.27922L13.9695 12.2292L16.5995 12.1892C16.7895 12.1892 16.9295 12.3592 16.8995 12.5392L16.5495 14.4492C16.5195 14.5892 16.3995 14.6892 16.2595 14.6992L14.0095 14.7392L14.1295 21.9892L11.1295 22.0392L11.0095 14.7892L9.30948 14.8192C9.13948 14.8192 9.00949 14.6892 9.00949 14.5192L8.97949 12.6192C8.97949 12.4492 9.10948 12.3192 9.27948 12.3192L10.9795 12.2892L10.9295 9.03922C10.8995 7.37922 12.2195 6.01922 13.8795 5.98922L16.5795 5.94922C16.7495 5.94922 16.8795 6.07922 16.8795 6.24922L16.9195 8.64922C16.9195 8.81922 16.7895 8.94922 16.6195 8.94922L14.2195 8.98922C14.0495 8.97922 13.9195 9.11922 13.9195 9.27922Z" />
</svg>

<?xml version="1.0" encoding="UTF-8"?>
<svg width="24" height="24" viewBox="0 0 24 24" xmlns="http://www.w3.org/2000/svg">
 <path d="m16.19 2h-8.37c-3.64 0-5.81 2.17-5.81 5.81v8.37c0 3.64 2.17 5.81 5.81 5.81h8.37c3.64 0 5.81-2.17 5.81-5.81v-8.37c0-3.64-2.17-5.81-5.81-5.81z" opacity=".4"/>
 <path d="m13.92 9.2792 0.05 2.95 2.63-0.04c0.19 0 0.33 0.17 0.3 0.35l-0.35 1.91c-0.03 0.14-0.15 0.24-0.29 0.25l-2.25 0.04 0.12 7.25-3 0.05-0.12-7.25-1.7 0.03c-0.17 0-0.29999-0.13-0.29999-0.3l-0.03-1.9c0-0.17 0.12999-0.3 0.29999-0.3l1.7-0.03-0.05-3.25c-0.03-1.66 1.29-3.02 2.95-3.05l2.7-0.04c0.17 0 0.3 0.13 0.3 0.3l0.04 2.4c0 0.17-0.13 0.3-0.3 0.3l-2.4 0.04c-0.17-0.01-0.3 0.13-0.3 0.29z"/>
</svg>
